transcribe-close.svg

<svg fill="currentColor" viewBox="0 0 24 24"><path d="m12 23-4-4h8zm8-20a2 2 0 0 1 2 2v10a2 2 0 0 1-2 2H4a2 2 0 0 1-2-2V5a2 2 0 0 1 2-2zm-2 12v-2h-5.5l-2 2zM6 15h2.5l6.85-6.88c.2-.19.2-.51 0-.7l-1.76-1.77c-.2-.2-.52-.2-.71 0L6 12.53z"/></svg>

<svg  viewBox="0 0 24 24" fill="currentColor"><path  d="M12,23L8,19H16L12,23M20,3A2,2 0 0,1 22,5V15A2,2 0 0,1 20,17H4A2,2 0 0,1 2,15V5A2,2 0 0,1 4,3H20M18,15V13H12.5L10.5,15H18M6,15H8.5L15.35,8.12C15.55,7.93 15.55,7.61 15.35,7.42L13.59,5.65C13.39,5.45 13.07,5.45 12.88,5.65L6,12.53V15Z"/></svg>
